synths/sFIL.svg

<svg width="42" height="42" viewBox="0 0 42 42" fill="none" xmlns="http://www.w3.org/2000/svg">
<g clip-path="url(#clip0_7277_57925)">
<mask id="mask0_7277_57925" style="mask-type:alpha" maskUnits="userSpaceOnUse" x="0" y="0" width="42" height="42">
<circle cx="21" cy="21" r="21" fill="url(#paint0_linear_7277_57925)"/>
</mask>
<g mask="url(#mask0_7277_57925)">
<circle cx="21" cy="21" r="21" fill="#34EDB3"/>
<circle cx="21" cy="21" r="18.2" fill="white"/>
</g>
<circle cx="21" cy="21" r="16.1" fill="#06061B"/>
<path fill-rule="evenodd" clip-rule="evenodd" d="M21 37.2683C12.0528 37.2683 4.73239 29.9479 4.73239 20.9194C4.81373 11.9722 12.0528 4.65176 21.0813 4.73309C30.0285 4.81443 37.2676 12.0535 37.2676 21.1634C37.1863 30.0292 29.9472 37.2683 21 37.2683Z" fill="#0090FF"/>
<path fill-rule="evenodd" clip-rule="evenodd" d="M22.5454 19.0486L22.0574 21.6514L26.6937 22.3021L26.3683 23.5222L21.8134 22.8715C21.488 23.9289 21.3254 25.0676 20.9187 26.0437C20.512 27.1824 20.1053 28.3211 19.6173 29.3785C18.9666 30.7613 17.8278 31.7373 16.2824 31.9813C15.3877 32.144 14.4116 32.0627 13.6796 31.4933C13.4356 31.3306 13.1916 31.0053 13.1916 30.7613C13.1916 30.4359 13.3542 30.0292 13.5982 29.8665C13.7609 29.7852 14.1676 29.8665 14.4116 29.9479C14.6556 30.1919 14.8997 30.5173 15.0623 30.8426C15.5504 31.4933 16.2011 31.5746 16.8518 31.0866C17.5838 30.4359 17.9905 29.5412 18.2345 28.6465C18.7225 26.6944 19.2106 24.8236 19.6173 22.8715V22.5461L15.3063 21.8954L15.469 20.6753L19.9426 21.3261L20.512 18.8046L15.8757 18.0725L16.0384 16.7711L20.8373 17.4218C21 16.9338 21.0813 16.5271 21.244 16.1204C21.6507 14.6563 22.0574 13.1923 23.0335 11.8908C24.0095 10.5894 25.1483 9.77605 26.8563 9.85739C27.5884 9.85739 28.3204 10.1014 28.8085 10.6708C28.8898 10.7521 29.0525 10.9148 29.0525 11.0775C29.0525 11.4028 29.0525 11.8095 28.8085 12.0535C28.4831 12.2975 28.0764 12.2162 27.7511 11.8908C27.5071 11.6468 27.3444 11.4028 27.1004 11.1588C26.6123 10.5081 25.8803 10.4268 25.3109 10.9961C24.9042 11.4028 24.4975 11.9722 24.2535 12.5415C23.6842 14.2496 23.2775 16.0391 22.7081 17.8285L27.1817 18.4792L26.8563 19.6993L22.5454 19.0486" fill="white"/>
</g>
<defs>
<linearGradient id="paint0_linear_7277_57925" x1="21" y1="0" x2="21" y2="61.4091" gradientUnits="userSpaceOnUse">
<stop stop-color="#08021E"/>
<stop offset="1" stop-color="#1F0777"/>
</linearGradient>
<clipPath id="clip0_7277_57925">
<rect width="42" height="42" fill="white"/>
</clipPath>
</defs>
</svg>

<svg xmlns="http://www.w3.org/2000/svg" width="42" height="42" fill="none"><g clip-path="url(#a)"><mask id="c" width="42" height="42" x="0" y="0" maskUnits="userSpaceOnUse" style="mask-type:alpha"><circle cx="21" cy="21" r="21" fill="url(#b)"/></mask><g mask="url(#c)"><circle cx="21" cy="21" r="21" fill="#34EDB3"/><circle cx="21" cy="21" r="18.2" fill="#fff"/></g><circle cx="21" cy="21" r="16.1" fill="#06061B"/><path fill="#0090FF" fill-rule="evenodd" d="M21 37.268c-8.947 0-16.268-7.32-16.268-16.349.082-8.947 7.32-16.267 16.35-16.186 8.947.081 16.186 7.32 16.186 16.43-.082 8.866-7.32 16.105-16.268 16.105Z" clip-rule="evenodd"/><path fill="#fff" fill-rule="evenodd" d="m22.545 19.049-.488 2.602 4.637.651-.326 1.22-4.555-.65c-.325 1.057-.488 2.196-.894 3.172-.407 1.138-.814 2.277-1.302 3.334-.65 1.383-1.79 2.36-3.335 2.603-.894.163-1.87.082-2.602-.488-.244-.162-.488-.488-.488-.732 0-.325.162-.732.406-.895.163-.08.57 0 .814.082.244.244.488.57.65.895.488.65 1.14.732 1.79.244.732-.651 1.139-1.546 1.383-2.44.488-1.953.976-3.823 1.382-5.775v-.326l-4.31-.65.162-1.22 4.474.65.569-2.521-4.636-.732.162-1.302 4.8.65c.162-.487.243-.894.406-1.3.407-1.465.813-2.929 1.79-4.23.976-1.302 2.114-2.115 3.822-2.034.732 0 1.464.244 1.952.814.082.081.244.244.244.407 0 .325 0 .732-.244.976-.325.243-.732.162-1.057-.163-.244-.244-.407-.488-.65-.732-.489-.65-1.22-.732-1.79-.163a5.21 5.21 0 0 0-1.058 1.545c-.569 1.709-.976 3.498-1.545 5.287l4.474.651-.326 1.22-4.31-.65" clip-rule="evenodd"/></g><defs><linearGradient id="b" x1="21" x2="21" y1="0" y2="61.409" gradientUnits="userSpaceOnUse"><stop stop-color="#08021E"/><stop offset="1" stop-color="#1F0777"/></linearGradient><clipPath id="a"><path fill="#fff" d="M0 0h42v42H0z"/></clipPath></defs></svg>
